src/assets/outline/ProfileTick.svg

<svg width="24" height="24" viewBox="0 0 24 24"  xmlns="http://www.w3.org/2000/svg">
<path d="M15.9604 21.3202C15.7704 21.3202 15.5804 21.2502 15.4304 21.1002L13.9104 19.5802C13.6204 19.2902 13.6204 18.8102 13.9104 18.5202C14.2004 18.2302 14.6804 18.2302 14.9704 18.5202L15.9604 19.5102L18.4704 17.0002C18.7604 16.7102 19.2404 16.7102 19.5304 17.0002C19.8204 17.2902 19.8204 17.7702 19.5304 18.0602L16.4904 21.1002C16.3404 21.2502 16.1504 21.3202 15.9604 21.3202Z" />
<path d="M12.1602 11.62C12.1302 11.62 12.1102 11.62 12.0802 11.62C12.0302 11.61 11.9602 11.61 11.9002 11.62C9.00019 11.53 6.8102 9.25 6.8102 6.44C6.8002 5.06 7.34019 3.76 8.32019 2.78C9.30019 1.8 10.6002 1.25 11.9902 1.25C14.8502 1.25 17.1802 3.58 17.1802 6.44C17.1802 9.25 14.9902 11.52 12.1902 11.62C12.1802 11.62 12.1702 11.62 12.1602 11.62ZM11.9902 2.75C11.0002 2.75 10.0802 3.14 9.3802 3.83C8.6902 4.53 8.3102 5.45 8.3102 6.43C8.3102 8.43 9.87019 10.05 11.8602 10.11C11.9202 10.1 12.0502 10.1 12.1802 10.11C14.1502 10.02 15.6802 8.41 15.6802 6.43C15.6802 4.41 14.0202 2.75 11.9902 2.75Z" />
<path d="M11.9902 22.5602C9.95016 22.5602 8.02016 22.0302 6.56016 21.0502C5.17016 20.1202 4.41016 18.8502 4.41016 17.4802C4.41016 16.1102 5.18016 14.8502 6.56016 13.9302C9.55016 11.9302 14.4102 11.9302 17.4002 13.9302C17.7402 14.1602 17.8402 14.6302 17.6102 14.9702C17.3802 15.3202 16.9102 15.4102 16.5702 15.1802C14.0802 13.5202 9.88016 13.5202 7.39016 15.1802C6.43016 15.8202 5.91016 16.6302 5.91016 17.4802C5.91016 18.3302 6.43016 19.1602 7.39016 19.8002C8.60016 20.6102 10.2302 21.0502 11.9802 21.0502C12.3902 21.0502 12.7302 21.3902 12.7302 21.8002C12.7302 22.2102 12.4002 22.5602 11.9902 22.5602Z" />
</svg>

<?xml version="1.0" encoding="UTF-8"?>
<svg width="24" height="24" viewBox="0 0 24 24" xmlns="http://www.w3.org/2000/svg">
 <path d="m15.96 21.32c-0.19 0-0.38-0.07-0.53-0.22l-1.52-1.52c-0.29-0.29-0.29-0.77 0-1.06s0.77-0.29 1.06 0l0.99 0.99 2.51-2.51c0.29-0.29 0.77-0.29 1.06 0s0.29 0.77 0 1.06l-3.04 3.04c-0.15 0.15-0.34 0.22-0.53 0.22z"/>
 <path d="m12.16 11.62h-0.08c-0.05-0.01-0.12-0.01-0.18 0-2.9-0.09-5.09-2.37-5.09-5.18-0.01-1.38 0.52999-2.68 1.51-3.66s2.28-1.53 3.67-1.53c2.86 0 5.19 2.33 5.19 5.19 0 2.81-2.19 5.08-4.99 5.18h-0.03zm-0.17-8.87c-0.99 0-1.91 0.39-2.61 1.08-0.69 0.7-1.07 1.62-1.07 2.6 0 2 1.56 3.62 3.55 3.68 0.06-0.01 0.19-0.01 0.32 0 1.97-0.09 3.5-1.7 3.5-3.68 0-2.02-1.66-3.68-3.69-3.68z"/>
 <path d="m11.99 22.56c-2.04 0-3.97-0.53-5.43-1.51-1.39-0.93-2.15-2.2-2.15-3.57s0.77-2.63 2.15-3.55c2.99-2 7.85-2 10.84 0 0.34 0.23 0.44 0.7 0.21 1.04-0.23 0.35-0.7 0.44-1.04 0.21-2.49-1.66-6.69-1.66-9.18 0-0.96 0.64-1.48 1.45-1.48 2.3s0.52 1.68 1.48 2.32c1.21 0.81 2.84 1.25 4.59 1.25 0.41 0 0.75 0.34 0.75 0.75s-0.33 0.76-0.74 0.76z"/>
</svg>
